X: 1
T: Kelly's The Boy From Killane
M: 4/4
L: 1/8
R: hornpipe
K: Gmaj
GB|:d2 dd g2 ge|d2 BG E2 GA|B2 AB dBAF|G4 G2 GB|
d2 dd g2 ge|d2 BG E2 GA|B2 AB dBAF|1 G4 G2 GB:|2 G4 G2 dd||
e2 cc g2 ge|d2 ge d2 dd|e2 cc g2 ge|d4 d2 GB|
d2 dd g2 ge|d2 BG E2 GA|B2 AB dBAF|1 G4 G2 dd:|2 G4 G4|
